X: 29
M: 6/8
L: 1/8
K: Ddor
|:\
(B2d) (B2A) |1 B3 d3 :|2 B3 d2 \
|: (d/e/) | (f2A) A2(d/e/) |
(f2A) A2(d/e/) |\
(f2A) (A2F) | A3 d3 |\

